X:707
T:Highland Polka
C:D Kippen
B:Kerr's Merry Melodies Book 2
Z:Nigel Gatherer
M:2/4
L:1/8
K:G
d    | gB dG | Bd d2 | cA A>A  | ed d
e/f/ | gB dG | Bd d2 | cA A>F  | AG G :|
z    | Ad df | af f2 | ge e>^c | eA A2 |
       Ad df | af f2 | ge e>^c | ed d ||
<end>
<start>
